X: 1743
T: Napoleon's March
B: australian traditional tunes wiki
M:2/4
L:1/16
R: Step Dance
Q: 1/4=100
K:G
V:1 
Bc||:"G"d2dd d2d2|d2d2 e2d2|d2g2 B3B|B4c2B2|"D7"B2A2 A3A|A2A2 B2c2|"G"e2d2 d3c|B4G2B2||
d2dd d2d2|d2d2 e2d2|d2g2 B3B|B2B2 c2B2|"D7"B2A2 A3A|A2c2 B2A2|"G"G8-|"fine"G4z2ef||
"G" g8|d6-dc|B4G4|G3A B2c2|d2dd d2dd|d2e2 d2c2|B8|G4A2B2|"C"c2cc c2B2|
"D7"A4A2G2|F4D4|D4G2A2|"G"B2BB B2A2|G8-|G2G2 B2c2|d2dd d2c2|B8-|B4"D.C. al Fine"c2^c2:|
% abcbook-tune_id 6342d53abaf2d01face5c2d8


% abcbook-boost 0
% abcbook-tablature 
% abcbook-transpose 
% abcbook-lastupdated 1665324381340
% abcbook-soundfonts 
% abcbook-repeats 1
% NFF Book 2008

